X:1
T: I do not incline
C:
R:Jig
Q:180
K:G
M:6/8
L:1/16
GE|D2B,2D2 G4A2|B2c2B2 A2G2A2|B2G2E2 E2G2A2|B2G2E2 E4GE|D2B,2D2 G4A2|B2c2B2 A2G2A2|B2G2E2 D2E2F2|G2A2G2 G4GE|
D2B,2D2 G4A2|B2c2B2 A2G2A2|B2G2E2 E2G2A2|B2G2E2 E4GE|D2B,2D2 G4A2|B2c2B2 A2G2A2|B2G2E2 D2E2F2|G2A2G2 G4GA|
B2G2G2 A2F2F2|G2E2E2 F2D2D2|E2F2E2 E4GA|B2G2E2 E4GE|D2B,2D2 G4A2|B2c2B2 A2G2A2|B2G2E2 D2E2F2|G2A2G2 G4GA|
B2G2G2 A2F2F2|G2E2E2 F2D2D2|E2F2E2 E4GA|B2G2E2 E4GE|D2B,2D2 G4A2|B2c2B2 A2G2A2|B2G2E2 D2E2F2|G2A2G2 G4||
